X:3416
T:Tillmans schottis
R:Schottis
C:Olof Tillman (1878-1962)
O:Dala-Floda, Dalarna
Z:ABC-notering av Per Oldberg 2014-09
M:4/4
L:1/8
N:http://ellinorleonor.com/track/tillmans-schottis
Q:1/4=142
K:D
P:ABACABA
[P:A]A>B A>F A2d2 | A>^G A>B A2a2 | a>g g>f f>e e>d | d>c c>B B>A A>F  | 
A>B A>F A2d2 | A>^G A>B A2a2 | a>g g>f f>e B>c | d2f2d4 ::
[K:A][P:B]e2e2a2- a>e | c2c2e2- e>c | B>e e>d B>e e>d | c>a g>f e>d c>d | 
e2e2a2- a>e | c2c2e2- e>f | g>f e>d c>B A>G | A2A2A4 :: 
[K:G][P:C] d>c B>c d2 d>g | b2 b>g d2- d>B  |  c2a2c2a2 | g>f g>a b>g d>c | 
d>c B>c d2 d>g | b2 b>g d2- d>B  |  c2a2c2a2 | g>a g>f g4 :| 
(:musicend:)

Detta är en variant av Wiktor Ösths "Negern och kanariefågeln"
(:music:)
